resources/svg/download-option.svg

<svg xmlns="http://www.w3.org/2000/svg" viewBox="0 0 24 24" fill="currentColor"><path fill-rule="evenodd" clip-rule="evenodd" d="M12 24C5.37258 24 0 18.6274 0 12C0 5.37258 5.37258 0 12 0C18.6274 0 24 5.37258 24 12C24 18.6274 18.6274 24 12 24ZM2 12C2 17.5228 6.47715 22 12 22C17.5228 22 22 17.5228 22 12C22 6.47715 17.5228 2 12 2C6.47715 2 2 6.47715 2 12ZM16.2929 11.2929L13 14.5858V6H11V14.5858L7.70711 11.2929L6.29289 12.7071L11.2929 17.7071L12 18.4142L12.7071 17.7071L17.7071 12.7071L16.2929 11.2929Z" fill="black"/></svg>

<svg viewBox="0 0 24 24"><g fill="none"><path fill-rule="evenodd" clip-rule="evenodd" d="M12 24C5.373 24 0 18.627 0 12S5.373 0 12 0s12 5.373 12 12s-5.373 12-12 12zM2 12c0 5.523 4.477 10 10 10s10-4.477 10-10S17.523 2 12 2S2 6.477 2 12zm14.293-.707L13 14.586V6h-2v8.586l-3.293-3.293l-1.414 1.414l5 5l.707.707l.707-.707l5-5l-1.414-1.414z" fill="currentColor"/></g></svg>
